X:1
T:The Pilot of Galilee
T:The Pilot of Galilee
T:Lelia Naylor Morris
T:Lelia Naylor Morris, 1912
T:Public Domain Courtesy of the Cyber Hymnal™
T:Public Domain Courtesy of the Cyber Hymnal™
C:Lelia Naylor Morris
Z:Public Domain
Z:Courtesy of the Cyber Hymnal™
%%score ( 1 2 ) ( 3 4 )
L:1/8
Q:1/4=105
M:4/4
K:F
V:1 treble 
V:2 treble 
V:3 bass 
V:4 bass 
V:1
 C2 [CF][CG] [CA]2 [FA][FA] | [FB][Fd][Fc][FB] [FA]4 | [Fc]2 [Fc][Fd] [Fc]2 [FA][CF] | %3
w: 1.~Out on life’s o- cean with|per- ils ev- er nigh,|I have a pi- lot on|
w: 2.~Won- drous His pow- er and|match- less is His skill,|Bil- lows and tem- pests o-|
w: 3.~Fierce was the tem- pest once|rag- ing in my soul,|When of my bark He, my|
w: 4.~Hear it, ye storm- tossed, up-|on the sea of sin,|Why will ye not take the|
 [CE][CF][CB][CA] [EG]4 | [FA]2 [GA][GA] [FA]2 [DF]C | [B,D][DF][CE][B,D] [A,C]3 [A,C] | %6
w: whom I can re- ly;|With Him to guide me, life’s|storms I can de- fy, ’Tis|
w: bey His sov- ereign will.|Hushed in- to si- lence at|His blest “Peace, be still,” This|
w: pi- lot, took con- trol.|With voice com- mand- ing a-|bove the thun- der’s roll, This|
w: heav’n- ly pi- lot in?|Safe- ly He’ll guide you the|ha- ven blest to win, This|
 [B,D]2 ([Cc][DB]) A2 [EG]2 | F6 z2 ||"^Refrain" [Fc]2 [Fc][Fc] [Fd] [Fc]2 F | %9
w: Christ of * Gal- i-|lee.||
w: man of * Gal- i-|lee.||
w: man of * Gal- i-|lee.|He is my pi- lot on|
w: man of * Gal- i-|lee.||
 [FA]2 [FA]>[F^G] [FA]4 | [B,D]2 [DF][B,D] [A,C]2 ([CF][FA]) | [EG]2 G2 [EG]3 [Gc] | %12
w: |||
w: |||
w: life’s storm- y sea,|This won- drous Man of *|Gal- i- lee; I’m|
w: |||
 [Fc]2 [Fc][Fc] [Fd] [Fc]2 [FA] | [DG][DF][DG][DF] [B,D] C2 [FA] | [Fc] [Fc]2 [FA] F2 G2 | %15
w: |||
w: |||
w: safe in His keep- ing, Tho’|storms are round me sweep- ing, This|pi- lot of Gal- i-|
w: |||
 [CF]6 z2 |] %16
w: |
w: |
w: lee.|
w: |
V:2
 C2 x6 | x8 | x8 | x8 | x7 C | x8 | x4 (CF) x2 | F6 x2 || x7 F | x8 | x8 | x2 (DF) x4 | x8 | %13
 x5 C2 x | x4 F2 (EC) | x8 |] %16
V:3
 [F,A,]2 [F,A,][F,B,] [F,C]2 [F,C][F,C] | [F,D][F,B,][F,A,][F,D] [F,C]4 | %2
 [F,A,]2 [F,A,][F,B,] [F,A,]2 [F,C][F,A,] | [G,B,][F,A,][E,G,]F, [C,C]4 | %4
 [F,C]2 [E,^C][E,C] [D,D]2 [D,A,][F,A,] | F,[B,,F,][B,,F,][B,,F,] F,3 F, | %6
 [B,,F,]2 F,2 (F,A,) [C,B,]2 | [F,A,]6 z2 || [F,A,]2 [F,A,][F,A,] [F,B,] [F,A,]2 [F,A,] | %9
 [F,C]2 [F,C]>[F,=B,] [F,C]4 | F,2 [B,,F,][B,,F,] F,2 (A,C) | [G,C]2 [G,=B,]2 [C,C]3 [E,_B,] | %12
 [F,A,]2 [F,A,][F,A,] [F,B,] [F,A,]2 [F,C] | [B,,B,][B,,B,][B,,B,][B,,B,] [F,B,] [F,A,]2 [F,C] | %14
 [F,A,] [F,A,]2 [F,C] [D,=B,]2 [C,_B,]2 | [F,A,]6 z2 |] %16
V:4
 x8 | x8 | x8 | x3 F, x4 | x8 | F, x2 F,3 F, x | x2 (A,,B,,) C,2 x2 | x8 || x8 | x8 | %10
 F,2 F,2 F,2 x2 | x8 | x8 | x8 | x8 | x8 |] %16

